Assets/2. Presetpro - Filmic LUT/Presetpro - Filmic.cube
#Copyright Tim Martin Presetpro.com StockPresets.com
TITLE "Presetpro - Filmic"
#LUT size
LUT_3D_SIZE 64
#LUT data points
0.015686 0.035294 0.050980
0.015686 0.035294 0.050980
0.023529 0.035294 0.054902
0.031373 0.035294 0.050980
0.039216 0.039216 0.047059
0.054902 0.035294 0.050980
0.062745 0.039216 0.047059
0.070588 0.035294 0.047059
0.078431 0.047059 0.047059
0.090196 0.043137 0.043137
0.105882 0.043137 0.047059
0.117647 0.043137 0.050980
0.121569 0.047059 0.054902
0.137255 0.050980 0.058824
0.152941 0.050980 0.054902
0.164706 0.047059 0.047059
0.172549 0.047059 0.050980
0.192157 0.050980 0.050980
0.211765 0.054902 0.054902
0.215686 0.050980 0.054902
0.239216 0.050980 0.050980
0.250980 0.047059 0.054902
0.270588 0.050980 0.054902
0.290196 0.054902 0.054902
0.301961 0.050980 0.047059
0.317647 0.050980 0.050980
0.329412 0.050980 0.050980
0.349020 0.050980 0.050980
0.372549 0.050980 0.058824
0.388235 0.050980 0.054902
0.403922 0.050980 0.058824
0.423529 0.047059 0.054902
0.435294 0.043137 0.050980
0.458824 0.043137 0.058824
0.478431 0.047059 0.058824
0.494118 0.047059 0.054902
0.513725 0.043137 0.050980
0.529412 0.043137 0.050980
0.545098 0.039216 0.054902
0.564706 0.039216 0.050980
0.584314 0.047059 0.047059
0.596078 0.039216 0.047059
0.615686 0.039216 0.043137
0.639216 0.047059 0.050980
0.658824 0.050980 0.043137
0.674510 0.050980 0.039216
0.690196 0.050980 0.031373
0.705882 0.054902 0.039216
0.717647 0.058824 0.027451
0.737255 0.062745 0.023529
0.768627 0.070588 0.023529
0.776471 0.074510 0.015686
0.796078 0.082353 0.007843
0.819608 0.090196 0.007843
0.839216 0.094118 0.007843
0.854902 0.105882 0.003922
0.874510 0.109804 0.000000
0.886275 0.117647 0.000000
0.909804 0.133333 0.000000
0.921569 0.137255 0.003922
0.937255 0.149020 0.000000
0.956863 0.160784 0.003922
0.972549 0.172549 0.003922
0.988235 0.180392 0.003922
0.007843 0.039216 0.047059
0.019608 0.039216 0.050980
0.023529 0.043137 0.054902
0.027451 0.043137 0.054902
0.043137 0.047059 0.054902
0.050980 0.043137 0.047059
0.062745 0.047059 0.050980
0.070588 0.047059 0.047059
0.074510 0.054902 0.043137
0.090196 0.050980 0.047059
0.109804 0.054902 0.050980
0.125490 0.054902 0.054902
0.125490 0.054902 0.054902
0.133333 0.054902 0.050980
0.152941 0.058824 0.058824
0.172549 0.054902 0.062745
0.180392 0.062745 0.054902
0.196078 0.062745 0.054902
0.203922 0.066667 0.050980
0.215686 0.062745 0.050980
0.247059 0.058824 0.050980
0.258824 0.058824 0.054902
0.270588 0.058824 0.050980
0.286275 0.058824 0.047059
0.298039 0.058824 0.050980
0.313725 0.054902 0.054902
0.337255 0.058824 0.058824
0.352941 0.054902 0.054902
0.372549 0.054902 0.050980
0.392157 0.058824 0.050980
0.407843 0.058824 0.050980
0.427451 0.050980 0.054902
0.443137 0.050980 0.058824
0.462745 0.054902 0.058824
0.482353 0.058824 0.058824
0.501961 0.054902 0.054902
0.513725 0.050980 0.054902
0.537255 0.047059 0.062745
0.552941 0.050980 0.054902
0.568627 0.054902 0.054902
0.584314 0.047059 0.047059
0.603922 0.050980 0.047059
0.619608 0.050980 0.047059
0.639216 0.054902 0.047059
0.654902 0.054902 0.043137
0.670588 0.054902 0.043137
0.686275 0.054902 0.043137
0.705882 0.062745 0.035294
0.729412 0.070588 0.031373
0.745098 0.070588 0.023529
0.760784 0.074510 0.023529
0.784314 0.082353 0.023529
0.803922 0.090196 0.015686
0.811765 0.094118 0.007843
0.839216 0.105882 0.000000
0.858824 0.109804 0.000000
0.878431 0.113725 0.000000
0.890196 0.129412 0.000000
0.901961 0.137255 0.000000
0.921569 0.145098 0.000000
0.937255 0.156863 0.003922
0.956863 0.160784 0.000000
0.968627 0.168627 0.000000
0.992157 0.184314 0.000000
0.007843 0.047059 0.050980
0.015686 0.054902 0.058824
0.019608 0.054902 0.050980
0.031373 0.054902 0.054902
0.039216 0.054902 0.050980
0.054902 0.054902 0.054902
0.058824 0.054902 0.047059
0.070588 0.054902 0.050980
0.078431 0.058824 0.047059
0.086275 0.054902 0.047059
0.101961 0.058824 0.050980
0.117647 0.054902 0.054902
0.129412 0.058824 0.050980
0.137255 0.058824 0.054902
0.156863 0.062745 0.054902
0.168627 0.058824 0.047059
0.180392 0.066667 0.050980
0.196078 0.066667 0.047059
0.211765 0.062745 0.050980
0.223529 0.062745 0.047059
0.239216 0.062745 0.050980
0.258824 0.066667 0.050980
0.278431 0.070588 0.050980
0.286275 0.070588 0.054902
0.298039 0.062745 0.054902
0.313725 0.062745 0.054902
0.337255 0.066667 0.054902
0.356863 0.062745 0.050980
0.376471 0.066667 0.050980
0.392157 0.066667 0.050980
0.415686 0.066667 0.050980
0.431373 0.062745 0.054902
0.443137 0.058824 0.054902
0.458824 0.062745 0.054902
0.482353 0.058824 0.050980
0.498039 0.062745 0.058824
0.513725 0.062745 0.058824
0.525490 0.058824 0.050980
0.552941 0.062745 0.054902
0.568627 0.062745 0.050980
0.588235 0.058824 0.047059
0.603922 0.058824 0.047059
0.623529 0.062745 0.047059
0.639216 0.066667 0.047059
0.654902 0.066667 0.043137
0.674510 0.070588 0.047059
0.690196 0.070588 0.035294
0.709804 0.074510 0.035294
0.725490 0.078431 0.023529
0.745098 0.082353 0.031373
0.768627 0.082353 0.023529
0.784314 0.082353 0.023529
0.803922 0.098039 0.011765
0.819608 0.101961 0.000000
0.835294 0.109804 0.000000
0.854902 0.113725 0.000000
0.874510 0.121569 0.007843
0.890196 0.129412 0.000000
0.905882 0.141176 0.000000
0.929412 0.149020 0.000000
0.941176 0.156863 0.000000
0.960784 0.164706 0.000000
0.976471 0.176471 0.000000
0.984314 0.188235 0.000000
0.007843 0.054902 0.054902
0.011765 0.058824 0.050980
0.019608 0.058824 0.054902
0.023529 0.058824 0.047059
0.039216 0.062745 0.054902
0.054902 0.062745 0.050980
0.062745 0.062745 0.054902
0.070588 0.066667 0.050980
0.078431 0.066667 0.047059
0.090196 0.070588 0.054902
0.105882 0.070588 0.050980
0.121569 0.066667 0.054902
0.137255 0.066667 0.050980
0.141176 0.066667 0.050980
0.156863 0.066667 0.047059
0.164706 0.066667 0.050980
0.184314 0.066667 0.058824
0.196078 0.074510 0.062745
0.211765 0.074510 0.058824
0.223529 0.070588 0.050980
0.243137 0.070588 0.058824
0.258824 0.070588 0.054902
0.274510 0.074510 0.054902
0.282353 0.074510 0.050980
0.301961 0.070588 0.054902
0.325490 0.070588 0.054902
0.341176 0.070588 0.050980
0.356863 0.070588 0.047059
0.376471 0.066667 0.050980
0.400000 0.070588 0.062745
0.411765 0.066667 0.058824
0.435294 0.066667 0.058824
0.439216 0.066667 0.058824
0.462745 0.066667 0.058824
0.482353 0.070588 0.054902
0.498039 0.070588 0.050980
0.517647 0.066667 0.054902
0.537255 0.070588 0.054902
0.552941 0.070588 0.050980
0.572549 0.066667 0.047059
0.588235 0.062745 0.058824
0.603922 0.070588 0.054902
0.627451 0.066667 0.043137
0.639216 0.066667 0.039216
0.658824 0.070588 0.043137
0.678431 0.074510 0.043137
0.690196 0.070588 0.035294
0.713725 0.078431 0.039216
0.725490 0.086275 0.027451
0.745098 0.090196 0.027451
0.768627 0.094118 0.023529
0.792157 0.101961 0.019608
0.800000 0.105882 0.011765
0.819608 0.109804 0.003922
0.839216 0.113725 0.000000
0.858824 0.117647 0.000000
0.878431 0.133333 0.007843
0.890196 0.141176 0.000000
0.905882 0.149020 0.000000
0.925490 0.152941 0.000000
0.941176 0.168627 0.003922
0.952941 0.176471 0.003922
0.972549 0.180392 0.000000
0.988235 0.200000 0.000000
0.003922 0.066667 0.062745
0.007843 0.070588 0.066667
0.015686 0.074510 0.062745
0.023529 0.070588 0.062745
0.035294 0.070588 0.058824
0.047059 0.074510 0.047059
0.062745 0.070588 0.050980
0.070588 0.074510 0.050980
0.082353 0.070588 0.050980
0.090196 0.070588 0.054902
0.101961 0.074510 0.050980
0.117647 0.074510 0.050980
0.129412 0.078431 0.054902
0.149020 0.074510 0.058824
0.160784 0.078431 0.058824
0.168627 0.078431 0.058824
0.188235 0.074510 0.050980
0.203922 0.074510 0.047059
0.215686 0.078431 0.054902
0.227451 0.074510 0.054902
0.250980 0.074510 0.062745
0.266667 0.074510 0.058824
0.274510 0.074510 0.054902
0.286275 0.078431 0.054902
0.309804 0.078431 0.054902
0.325490 0.078431 0.050980
0.349020 0.078431 0.050980
0.364706 0.078431 0.054902
0.380392 0.078431 0.054902
0.392157 0.074510 0.058824
0.419608 0.078431 0.058824
0.431373 0.074510 0.054902
0.443137 0.078431 0.050980
0.466667 0.078431 0.054902
0.482353 0.078431 0.058824
0.505882 0.078431 0.058824
0.525490 0.074510 0.054902
0.541176 0.074510 0.050980
0.556863 0.074510 0.047059
0.576471 0.070588 0.047059
0.592157 0.082353 0.058824
0.603922 0.078431 0.050980
0.623529 0.074510 0.039216
0.643137 0.078431 0.043137
0.662745 0.082353 0.043137
0.682353 0.086275 0.043137
0.694118 0.086275 0.039216
0.709804 0.086275 0.031373
0.729412 0.090196 0.031373
0.749020 0.094118 0.031373
0.772549 0.101961 0.031373
0.784314 0.105882 0.011765
0.803922 0.109804 0.007843
0.823529 0.113725 0.000000
0.843137 0.121569 0.000000
0.858824 0.129412 0.000000
0.878431 0.133333 0.000000
0.894118 0.145098 0.000000
0.909804 0.152941 0.000000
0.925490 0.164706 0.000000
0.945098 0.172549 0.000000
0.956863 0.180392 0.000000
0.968627 0.188235 0.000000
0.988235 0.200000 0.000000
0.000000 0.074510 0.058824
0.003922 0.078431 0.062745
0.011765 0.074510 0.062745
0.015686 0.074510 0.054902
0.031373 0.082353 0.054902
0.039216 0.082353 0.050980
0.054902 0.082353 0.050980
0.062745 0.082353 0.054902
0.078431 0.082353 0.050980
0.098039 0.086275 0.050980
0.113725 0.086275 0.054902
0.121569 0.086275 0.058824
0.141176 0.082353 0.054902
0.152941 0.078431 0.054902
0.160784 0.082353 0.054902
0.172549 0.082353 0.050980
0.192157 0.086275 0.058824
0.203922 0.082353 0.062745
0.215686 0.086275 0.058824
0.231373 0.086275 0.054902
0.250980 0.082353 0.050980
0.270588 0.086275 0.058824
0.278431 0.090196 0.050980
0.286275 0.090196 0.047059
0.309804 0.086275 0.058824
0.325490 0.090196 0.058824
0.349020 0.086275 0.054902
0.360784 0.086275 0.054902
0.376471 0.082353 0.058824
0.396078 0.086275 0.058824
0.415686 0.086275 0.054902
0.427451 0.082353 0.047059
0.447059 0.082353 0.054902
0.466667 0.086275 0.058824
0.490196 0.086275 0.058824
0.505882 0.086275 0.054902
0.517647 0.086275 0.058824
0.545098 0.086275 0.058824
0.556863 0.086275 0.054902
0.572549 0.086275 0.054902
0.592157 0.082353 0.050980
0.611765 0.086275 0.050980
0.627451 0.086275 0.047059
0.643137 0.086275 0.047059
0.658824 0.090196 0.047059
0.678431 0.094118 0.039216
0.698039 0.098039 0.035294
0.713725 0.098039 0.031373
0.733333 0.101961 0.031373
0.749020 0.105882 0.031373
0.768627 0.109804 0.027451
0.788235 0.117647 0.019608
0.803922 0.117647 0.011765
0.827451 0.125490 0.007843
0.843137 0.129412 0.003922
0.858824 0.137255 0.003922
0.882353 0.145098 0.000000
0.894118 0.152941 0.003922
0.905882 0.160784 0.000000
0.929412 0.168627 0.000000
0.949020 0.176471 0.003922
0.960784 0.184314 0.000000
0.980392 0.188235 0.000000
0.992157 0.203922 0.003922
0.000000 0.082353 0.062745
0.000000 0.082353 0.062745
0.011765 0.086275 0.070588
0.019608 0.086275 0.062745
0.027451 0.086275 0.058824
0.043137 0.086275 0.054902
0.054902 0.094118 0.058824
0.066667 0.094118 0.062745
0.082353 0.094118 0.050980
0.090196 0.090196 0.050980
0.105882 0.098039 0.050980
0.121569 0.098039 0.050980
0.137255 0.086275 0.050980
0.149020 0.094118 0.058824
0.160784 0.094118 0.054902
0.176471 0.086275 0.054902
0.196078 0.090196 0.047059
0.207843 0.090196 0.050980
0.223529 0.094118 0.058824
0.231373 0.098039 0.054902
0.250980 0.094118 0.054902
0.270588 0.098039 0.062745
0.278431 0.094118 0.054902
0.298039 0.090196 0.058824
0.317647 0.098039 0.050980
0.329412 0.094118 0.054902
0.345098 0.094118 0.058824
0.368627 0.094118 0.062745
0.384314 0.094118 0.058824
0.403922 0.098039 0.058824
0.423529 0.094118 0.054902
0.439216 0.094118 0.058824
0.454902 0.090196 0.058824
0.474510 0.094118 0.058824
0.486275 0.094118 0.054902
0.509804 0.094118 0.050980
0.525490 0.094118 0.050980
0.541176 0.094118 0.050980
0.556863 0.094118 0.047059
0.576471 0.090196 0.043137
0.600000 0.094118 0.043137
0.611765 0.094118 0.047059
0.627451 0.098039 0.043137
0.647059 0.101961 0.043137
0.666667 0.105882 0.043137
0.682353 0.105882 0.039216
0.701961 0.109804 0.043137
0.713725 0.109804 0.039216
0.733333 0.113725 0.031373
0.749020 0.113725 0.023529
0.768627 0.121569 0.015686
0.788235 0.125490 0.011765
0.803922 0.129412 0.011765
0.823529 0.133333 0.003922
0.843137 0.137255 0.000000
0.862745 0.141176 0.000000
0.878431 0.152941 0.000000
0.894118 0.160784 0.000000
0.909804 0.172549 0.000000
0.933333 0.180392 0.000000
0.945098 0.184314 0.003922
0.960784 0.192157 0.000000
0.980392 0.200000 0.000000
0.988235 0.211765 0.003922
0.000000 0.098039 0.062745
0.000000 0.101961 0.066667
0.003922 0.094118 0.062745
0.011765 0.094118 0.066667
0.023529 0.101961 0.066667
0.039216 0.101961 0.062745
0.047059 0.098039 0.058824
0.058824 0.105882 0.058824
0.090196 0.105882 0.050980
0.098039 0.105882 0.054902
0.113725 0.105882 0.054902
0.121569 0.105882 0.058824
0.133333 0.101961 0.050980
0.149020 0.101961 0.054902
0.168627 0.105882 0.054902
0.176471 0.105882 0.050980
0.196078 0.101961 0.054902
0.215686 0.105882 0.054902
0.223529 0.109804 0.054902
0.235294 0.101961 0.054902
0.258824 0.101961 0.062745
0.278431 0.105882 0.062745
0.286275 0.101961 0.062745
0.305882 0.101961 0.058824
0.317647 0.109804 0.054902
0.337255 0.101961 0.058824
0.356863 0.105882 0.058824
0.368627 0.109804 0.062745
0.388235 0.105882 0.066667
0.407843 0.105882 0.066667
0.419608 0.109804 0.058824
0.443137 0.105882 0.054902
0.450980 0.101961 0.054902
0.474510 0.105882 0.058824
0.498039 0.109804 0.058824
0.513725 0.109804 0.054902
0.529412 0.105882 0.054902
0.545098 0.105882 0.058824
0.560784 0.105882 0.054902
0.572549 0.105882 0.050980
0.600000 0.105882 0.050980
0.615686 0.109804 0.054902
0.631373 0.109804 0.043137
0.647059 0.109804 0.039216
0.666667 0.113725 0.039216
0.686275 0.109804 0.039216
0.701961 0.113725 0.027451
0.721569 0.121569 0.031373
0.737255 0.121569 0.023529
0.756863 0.125490 0.023529
0.776471 0.129412 0.019608
0.796078 0.133333 0.011765
0.811765 0.141176 0.003922
0.831373 0.145098 0.000000
0.850980 0.149020 0.000000
0.862745 0.152941 0.000000
0.882353 0.164706 0.000000
0.894118 0.172549 0.000000
0.909804 0.180392 0.000000
0.929412 0.188235 0.000000
0.945098 0.192157 0.007843
0.968627 0.200000 0.003922
0.976471 0.203922 0.000000
0.988235 0.211765 0.000000
0.000000 0.105882 0.070588
0.000000 0.105882 0.070588
0.000000 0.105882 0.070588
0.003922 0.105882 0.062745
0.015686 0.105882 0.066667
0.023529 0.109804 0.062745
0.031373 0.109804 0.066667
0.043137 0.109804 0.070588
0.070588 0.117647 0.062745
0.086275 0.117647 0.058824
0.109804 0.121569 0.054902
0.125490 0.121569 0.050980
0.141176 0.117647 0.054902
0.152941 0.117647 0.050980
0.168627 0.117647 0.054902
0.180392 0.117647 0.050980
0.200000 0.113725 0.054902
0.219608 0.117647 0.058824
0.223529 0.117647 0.050980
0.231373 0.117647 0.054902
0.258824 0.117647 0.062745
0.270588 0.117647 0.058824
0.286275 0.117647 0.054902
0.305882 0.113725 0.054902
0.329412 0.121569 0.066667
0.349020 0.117647 0.062745
0.360784 0.117647 0.058824
0.376471 0.117647 0.062745
0.396078 0.113725 0.058824
0.411765 0.113725 0.058824
0.419608 0.117647 0.054902
0.443137 0.117647 0.054902
0.462745 0.121569 0.054902
0.482353 0.117647 0.058824
0.498039 0.117647 0.054902
0.513725 0.117647 0.054902
0.533333 0.121569 0.054902
0.545098 0.117647 0.050980
0.564706 0.125490 0.047059
0.584314 0.121569 0.050980
0.607843 0.117647 0.039216
0.619608 0.117647 0.043137
0.639216 0.121569 0.043137
0.658824 0.125490 0.043137
0.674510 0.125490 0.043137
0.690196 0.129412 0.035294
0.705882 0.129412 0.031373
0.725490 0.129412 0.039216
0.745098 0.137255 0.027451
0.760784 0.137255 0.023529
0.780392 0.145098 0.023529
0.796078 0.145098 0.011765
0.815686 0.152941 0.007843
0.827451 0.156863 0.007843
0.847059 0.160784 0.000000
0.866667 0.164706 0.003922
0.878431 0.180392 0.007843
0.898039 0.184314 0.007843
0.909804 0.192157 0.000000
0.929412 0.196078 0.000000
0.952941 0.203922 0.000000
0.964706 0.211765 0.000000
0.984314 0.215686 0.000000
0.992157 0.223529 0.000000
0.000000 0.121569 0.078431
0.000000 0.121569 0.078431
0.000000 0.113725 0.066667
0.000000 0.113725 0.066667
0.007843 0.117647 0.070588
0.019608 0.121569 0.070588
0.031373 0.125490 0.074510
0.035294 0.129412 0.074510
0.070588 0.125490 0.066667
0.078431 0.129412 0.062745
0.101961 0.129412 0.058824
0.129412 0.137255 0.054902
0.137255 0.133333 0.047059
0.152941 0.133333 0.050980
0.164706 0.133333 0.050980
0.180392 0.129412 0.054902
0.207843 0.121569 0.062745
0.223529 0.121569 0.062745
0.235294 0.129412 0.062745
0.239216 0.125490 0.054902
0.266667 0.129412 0.054902
0.282353 0.129412 0.062745
0.294118 0.125490 0.058824
0.309804 0.125490 0.054902
0.337255 0.129412 0.058824
0.349020 0.125490 0.058824
0.368627 0.129412 0.058824
0.380392 0.133333 0.062745
0.400000 0.129412 0.066667
0.411765 0.133333 0.062745
0.427451 0.133333 0.058824
0.443137 0.133333 0.066667
0.470588 0.129412 0.054902
0.486275 0.129412 0.054902
0.509804 0.129412 0.054902
0.521569 0.125490 0.054902
0.533333 0.133333 0.054902
0.552941 0.125490 0.058824
0.572549 0.133333 0.054902
0.588235 0.133333 0.043137
0.603922 0.129412 0.054902
0.623529 0.133333 0.054902
0.643137 0.133333 0.043137
0.658824 0.137255 0.047059
0.678431 0.141176 0.047059
0.694118 0.141176 0.035294
0.713725 0.137255 0.027451
0.733333 0.141176 0.027451
0.745098 0.149020 0.027451
0.760784 0.149020 0.027451
0.780392 0.152941 0.019608
0.792157 0.160784 0.011765
0.819608 0.164706 0.007843
0.827451 0.164706 0.003922
0.843137 0.176471 0.003922
0.874510 0.180392 0.007843
0.882353 0.184314 0.003922
0.890196 0.192157 0.003922
0.913725 0.203922 0.003922
0.925490 0.207843 0.003922
0.949020 0.211765 0.003922
0.964706 0.215686 0.003922
0.988235 0.223529 0.003922
1.000000 0.239216 0.007843
0.000000 0.125490 0.082353
0.000000 0.125490 0.082353
0.003922 0.129412 0.078431
0.000000 0.125490 0.074510
0.003922 0.129412 0.078431
0.011765 0.133333 0.074510
0.023529 0.133333 0.078431
0.031373 0.141176 0.082353
0.058824 0.129412 0.066667
0.070588 0.137255 0.066667
0.098039 0.145098 0.066667
0.125490 0.145098 0.066667
0.141176 0.149020 0.058824
0.156863 0.149020 0.058824
0.168627 0.145098 0.050980
0.184314 0.141176 0.054902
0.203922 0.145098 0.062745
0.215686 0.145098 0.066667
0.231373 0.145098 0.062745
0.250980 0.145098 0.062745
0.266667 0.145098 0.062745
0.282353 0.145098 0.066667
0.301961 0.141176 0.062745
0.321569 0.145098 0.062745
0.341176 0.141176 0.066667
0.356863 0.141176 0.062745
0.368627 0.141176 0.062745
0.388235 0.141176 0.070588
0.400000 0.145098 0.066667
0.415686 0.149020 0.066667
0.435294 0.141176 0.058824
0.447059 0.141176 0.054902
0.474510 0.141176 0.058824
0.490196 0.145098 0.058824
0.513725 0.141176 0.054902
0.521569 0.137255 0.047059
0.537255 0.145098 0.054902
0.552941 0.145098 0.054902
0.576471 0.145098 0.047059
0.596078 0.149020 0.047059
0.603922 0.145098 0.047059
0.623529 0.149020 0.047059
0.643137 0.145098 0.039216
0.666667 0.152941 0.043137
0.678431 0.149020 0.035294
0.701961 0.156863 0.043137
0.721569 0.152941 0.031373
0.741176 0.156863 0.031373
0.745098 0.164706 0.023529
0.760784 0.168627 0.023529
0.788235 0.172549 0.015686
0.800000 0.168627 0.015686
0.823529 0.180392 0.011765
0.835294 0.184314 0.003922
0.858824 0.184314 0.003922
0.866667 0.184314 0.007843
0.886275 0.196078 0.003922
0.894118 0.207843 0.003922
0.913725 0.215686 0.003922
0.933333 0.219608 0.003922
0.949020 0.223529 0.003922
0.964706 0.227451 0.007843
0.984314 0.235294 0.000000
1.000000 0.239216 0.000000
0.003922 0.137255 0.082353
0.003922 0.137255 0.082353
0.000000 0.141176 0.074510
0.000000 0.141176 0.074510
0.000000 0.145098 0.078431
0.007843 0.141176 0.074510
0.015686 0.145098 0.078431
0.023529 0.145098 0.074510
0.058824 0.149020 0.078431
0.066667 0.149020 0.082353
0.082353 0.149020 0.074510
0.105882 0.152941 0.066667
0.125490 0.156863 0.066667
0.145098 0.160784 0.062745
0.168627 0.164706 0.054902
0.188235 0.160784 0.050980
0.203922 0.156863 0.054902
0.223529 0.160784 0.058824
0.235294 0.156863 0.050980
0.254902 0.160784 0.058824
0.262745 0.156863 0.050980
0.282353 0.156863 0.058824
0.301961 0.156863 0.054902
0.321569 0.160784 0.058824
0.337255 0.156863 0.062745
0.360784 0.156863 0.062745
0.376471 0.156863 0.058824
0.384314 0.160784 0.062745
0.407843 0.156863 0.058824
0.423529 0.160784 0.058824
0.439216 0.160784 0.058824
0.454902 0.160784 0.054902
0.474510 0.156863 0.050980
0.498039 0.156863 0.058824
0.517647 0.160784 0.058824
0.529412 0.160784 0.062745
0.549020 0.156863 0.062745
0.564706 0.156863 0.050980
0.576471 0.160784 0.039216
0.592157 0.156863 0.039216
0.615686 0.164706 0.050980
0.631373 0.164706 0.039216
0.647059 0.164706 0.035294
0.670588 0.164706 0.039216
0.678431 0.168627 0.035294
0.698039 0.164706 0.031373
0.717647 0.172549 0.027451
0.737255 0.176471 0.019608
0.764706 0.172549 0.027451
0.776471 0.176471 0.015686
0.796078 0.180392 0.011765
0.811765 0.184314 0.003922
0.823529 0.188235 0.003922
0.835294 0.196078 0.000000
0.854902 0.200000 0.000000
0.874510 0.203922 0.000000
0.890196 0.211765 0.007843
0.901961 0.215686 0.007843
0.921569 0.223529 0.003922
0.941176 0.227451 0.003922
0.960784 0.239216 0.003922
0.976471 0.243137 0.003922
0.988235 0.247059 0.000000
1.000000 0.254902 0.000000
0.003922 0.149020 0.082353
0.003922 0.149020 0.082353
0.003922 0.152941 0.086275
0.000000 0.149020 0.082353
0.000000 0.149020 0.082353
0.000000 0.149020 0.082353
0.007843 0.152941 0.082353
0.011765 0.156863 0.086275
0.043137 0.156863 0.078431
0.062745 0.160784 0.078431
0.086275 0.160784 0.082353
0.105882 0.164706 0.074510
0.121569 0.176471 0.070588
0.137255 0.180392 0.054902
0.164706 0.176471 0.054902
0.192157 0.172549 0.047059
0.211765 0.176471 0.054902
0.227451 0.172549 0.058824
0.235294 0.176471 0.054902
0.250980 0.176471 0.058824
0.274510 0.176471 0.058824
0.290196 0.172549 0.062745
0.305882 0.172549 0.062745
0.329412 0.176471 0.062745
0.349020 0.168627 0.066667
0.364706 0.168627 0.062745
0.380392 0.168627 0.058824
0.396078 0.172549 0.058824
0.411765 0.172549 0.062745
0.427451 0.172549 0.062745
0.447059 0.168627 0.058824
0.466667 0.172549 0.058824
0.482353 0.172549 0.054902
0.505882 0.172549 0.062745
0.521569 0.172549 0.062745
0.537255 0.168627 0.058824
0.549020 0.168627 0.054902
0.568627 0.172549 0.054902
0.584314 0.172549 0.050980
0.607843 0.172549 0.054902
0.611765 0.180392 0.043137
0.631373 0.176471 0.039216
0.650980 0.180392 0.043137
0.674510 0.180392 0.043137
0.686275 0.184314 0.039216
0.705882 0.184314 0.031373
0.725490 0.188235 0.023529
0.741176 0.192157 0.023529
0.764706 0.188235 0.019608
0.772549 0.192157 0.011765
0.792157 0.196078 0.011765
0.807843 0.196078 0.003922
0.827451 0.203922 0.007843
0.843137 0.211765 0.000000
0.858824 0.211765 0.000000
0.870588 0.219608 0.000000
0.886275 0.231373 0.000000
0.905882 0.231373 0.003922
0.917647 0.235294 0.000000
0.937255 0.243137 0.000000
0.956863 0.247059 0.000000
0.972549 0.250980 0.007843
0.984314 0.258824 0.003922
0.996078 0.266667 0.011765
0.003922 0.168627 0.090196
0.003922 0.168627 0.090196
0.000000 0.164706 0.086275
0.000000 0.164706 0.090196
0.000000 0.164706 0.086275
0.000000 0.164706 0.086275
0.003922 0.168627 0.090196
0.011765 0.164706 0.090196
0.035294 0.172549 0.086275
0.047059 0.172549 0.082353
0.074510 0.172549 0.086275
0.098039 0.176471 0.078431
0.121569 0.176471 0.070588
0.133333 0.184314 0.066667
0.156863 0.196078 0.062745
0.192157 0.196078 0.070588
0.211765 0.196078 0.050980
0.231373 0.192157 0.054902
0.243137 0.192157 0.054902
0.254902 0.192157 0.058824
0.278431 0.188235 0.062745
0.290196 0.188235 0.066667
0.305882 0.184314 0.062745
0.329412 0.188235 0.062745
0.356863 0.188235 0.062745
0.368627 0.188235 0.058824
0.388235 0.192157 0.062745
0.403922 0.192157 0.058824
0.419608 0.188235 0.062745
0.435294 0.188235 0.058824
0.447059 0.188235 0.054902
0.474510 0.188235 0.058824
0.494118 0.184314 0.054902
0.513725 0.188235 0.062745
0.525490 0.188235 0.050980
0.541176 0.188235 0.047059
0.556863 0.188235 0.050980
0.576471 0.192157 0.054902
0.592157 0.192157 0.043137
0.603922 0.192157 0.047059
0.619608 0.192157 0.031373
0.643137 0.192157 0.039216
0.662745 0.196078 0.039216
0.682353 0.200000 0.039216
0.698039 0.192157 0.035294
0.717647 0.196078 0.035294
0.725490 0.200000 0.015686
0.745098 0.200000 0.015686
0.764706 0.207843 0.019608
0.780392 0.207843 0.007843
0.792157 0.211765 0.000000
0.811765 0.215686 0.000000
