Assets/2. Presetpro - Filmic LUT/Presetpro - Filmic.cube
#Copyright Tim Martin Presetpro.com StockPresets.com
TITLE "Presetpro - Filmic"
#LUT size
LUT_3D_SIZE 4
#LUT data points
0.015686 0.035294 0.050980
0.250980 0.047059 0.054902
0.615686 0.039216 0.043137
0.988235 0.180392 0.003922
0.000000 0.278431 0.121569
0.274510 0.321569 0.078431
0.705882 0.337255 0.000000
1.000000 0.392157 0.000000
0.003922 0.607843 0.192157
0.227451 0.619608 0.172549
0.705882 0.682353 0.007843
0.996078 0.721569 0.003922
0.470588 0.945098 0.462745
0.549020 0.945098 0.474510
0.756863 0.960784 0.435294
1.000000 0.984314 0.258824
0.000000 0.039216 0.321569
0.309804 0.035294 0.321569
0.592157 0.066667 0.274510
0.968627 0.160784 0.278431
0.007843 0.317647 0.345098
0.317647 0.337255 0.349020
0.674510 0.341176 0.321569
0.992157 0.384314 0.282353
0.149020 0.647059 0.376471
0.321569 0.639216 0.368627
0.713725 0.694118 0.333333
0.992157 0.721569 0.313725
0.498039 0.945098 0.552941
0.572549 0.949020 0.560784
0.756863 0.956863 0.545098
0.996078 0.980392 0.447059
0.145098 0.000000 0.686275
0.403922 0.003922 0.686275
0.741176 0.003922 0.658824
0.933333 0.149020 0.596078
0.078431 0.294118 0.698039
0.400000 0.305882 0.690196
0.752941 0.309804 0.670588
0.949020 0.341176 0.600000
0.298039 0.690196 0.713725
0.466667 0.698039 0.713725
0.752941 0.713725 0.717647
0.996078 0.694118 0.670588
0.670588 0.952941 0.803922
0.698039 0.952941 0.796078
0.764706 0.960784 0.760784
0.992157 0.988235 0.737255
0.498039 0.000000 0.992157
0.627451 0.000000 1.000000
0.874510 0.003922 0.988235
0.996078 0.250980 0.980392
0.478431 0.282353 1.000000
0.607843 0.290196 1.000000
0.862745 0.325490 0.992157
1.000000 0.427451 0.984314
0.301961 0.650980 1.000000
0.462745 0.647059 0.992157
0.803922 0.674510 0.992157
1.000000 0.701961 0.984314
0.690196 0.964706 0.992157
0.729412 0.968627 0.988235
0.835294 0.972549 0.988235
0.988235 0.988235 0.988235
