Assets/2. Presetpro - Filmic LUT/Presetpro - Filmic.cube
#Copyright Tim Martin Presetpro.com StockPresets.com
TITLE "Presetpro - Filmic"
#LUT size
LUT_3D_SIZE 8
#LUT data points
0.015686 0.035294 0.050980
0.090196 0.043137 0.043137
0.211765 0.054902 0.054902
0.349020 0.050980 0.050980
0.513725 0.043137 0.050980
0.674510 0.050980 0.039216
0.839216 0.094118 0.007843
0.988235 0.180392 0.003922
0.000000 0.121569 0.078431
0.078431 0.129412 0.062745
0.235294 0.129412 0.062745
0.380392 0.133333 0.062745
0.533333 0.133333 0.054902
0.694118 0.141176 0.035294
0.843137 0.176471 0.003922
1.000000 0.239216 0.007843
0.000000 0.231373 0.113725
0.000000 0.243137 0.098039
0.219608 0.266667 0.078431
0.415686 0.274510 0.047059
0.592157 0.278431 0.039216
0.733333 0.286275 0.011765
0.882353 0.305882 0.000000
1.000000 0.341176 0.000000
0.000000 0.372549 0.137255
0.000000 0.368627 0.141176
0.164706 0.388235 0.117647
0.403922 0.431373 0.054902
0.619608 0.450980 0.000000
0.776471 0.458824 0.000000
0.925490 0.470588 0.003922
1.000000 0.494118 0.003922
0.000000 0.517647 0.168627
0.000000 0.513725 0.164706
0.133333 0.521569 0.164706
0.356863 0.549020 0.121569
0.588235 0.588235 0.015686
0.792157 0.619608 0.000000
0.925490 0.619608 0.000000
1.000000 0.635294 0.000000
0.000000 0.658824 0.211765
0.000000 0.658824 0.200000
0.152941 0.658824 0.196078
0.364706 0.682353 0.176471
0.568627 0.709804 0.125490
0.756863 0.737255 0.003922
0.937255 0.752941 0.000000
1.000000 0.760784 0.000000
0.145098 0.800000 0.274510
0.200000 0.800000 0.282353
0.282353 0.807843 0.266667
0.431373 0.811765 0.250980
0.588235 0.823529 0.235294
0.752941 0.843137 0.192157
0.898039 0.862745 0.082353
1.000000 0.882353 0.000000
0.470588 0.945098 0.462745
0.494118 0.949020 0.466667
0.533333 0.945098 0.470588
0.596078 0.949020 0.466667
0.682353 0.960784 0.458824
0.784314 0.968627 0.427451
0.898039 0.972549 0.376471
1.000000 0.984314 0.258824
0.000000 0.035294 0.156863
0.098039 0.039216 0.152941
0.196078 0.058824 0.137255
0.349020 0.082353 0.149020
0.505882 0.070588 0.137255
0.666667 0.082353 0.137255
0.835294 0.105882 0.117647
0.988235 0.176471 0.082353
0.003922 0.121569 0.160784
0.082353 0.133333 0.164706
0.223529 0.141176 0.160784
0.372549 0.141176 0.156863
0.529412 0.145098 0.149020
0.690196 0.156863 0.141176
0.850980 0.180392 0.109804
0.992157 0.235294 0.074510
0.000000 0.254902 0.176471
0.047059 0.247059 0.180392
0.231373 0.270588 0.164706
0.419608 0.278431 0.152941
0.592157 0.282353 0.152941
0.733333 0.290196 0.133333
0.878431 0.305882 0.105882
0.992157 0.345098 0.062745
0.003922 0.384314 0.203922
0.003922 0.384314 0.203922
0.188235 0.400000 0.196078
0.407843 0.431373 0.156863
0.615686 0.450980 0.121569
0.772549 0.458824 0.117647
0.913725 0.466667 0.090196
1.000000 0.490196 0.035294
0.000000 0.525490 0.215686
0.000000 0.517647 0.219608
0.160784 0.525490 0.211765
0.372549 0.556863 0.188235
0.596078 0.592157 0.137255
0.796078 0.619608 0.050980
0.933333 0.619608 0.043137
1.000000 0.631373 0.011765
0.000000 0.666667 0.247059
0.000000 0.662745 0.243137
0.180392 0.662745 0.239216
0.376471 0.678431 0.223529
0.560784 0.705882 0.192157
0.756863 0.729412 0.133333
0.933333 0.760784 0.000000
1.000000 0.756863 0.000000
0.176471 0.803922 0.301961
0.215686 0.807843 0.301961
0.298039 0.803922 0.298039
0.431373 0.811765 0.290196
0.588235 0.827451 0.278431
0.745098 0.843137 0.243137
0.901961 0.862745 0.176471
1.000000 0.882353 0.000000
0.478431 0.945098 0.482353
0.486275 0.945098 0.486275
0.537255 0.941176 0.482353
0.600000 0.949020 0.494118
0.686275 0.960784 0.482353
0.792157 0.968627 0.454902
0.890196 0.976471 0.400000
0.996078 0.980392 0.309804
0.000000 0.031373 0.286275
0.094118 0.039216 0.282353
0.247059 0.035294 0.270588
0.337255 0.082353 0.247059
0.494118 0.074510 0.247059
0.647059 0.082353 0.243137
0.811765 0.121569 0.231373
0.972549 0.176471 0.223529
0.003922 0.117647 0.290196
0.098039 0.133333 0.294118
0.254902 0.137255 0.286275
0.356863 0.149020 0.258824
0.513725 0.145098 0.250980
0.662745 0.172549 0.250980
0.835294 0.184314 0.239216
0.976471 0.227451 0.219608
0.000000 0.266667 0.294118
0.082353 0.266667 0.294118
0.250980 0.278431 0.301961
0.407843 0.282353 0.286275
0.564706 0.286275 0.278431
0.713725 0.294118 0.262745
0.858824 0.301961 0.247059
1.000000 0.341176 0.235294
0.082353 0.415686 0.321569
0.164706 0.415686 0.313725
0.243137 0.411765 0.301961
0.431373 0.439216 0.286275
0.623529 0.454902 0.290196
0.784314 0.458824 0.286275
0.901961 0.466667 0.250980
1.000000 0.478431 0.231373
0.039216 0.545098 0.313725
0.121569 0.545098 0.313725
0.243137 0.537255 0.313725
0.392157 0.556863 0.305882
0.607843 0.596078 0.286275
0.796078 0.619608 0.270588
0.921569 0.623529 0.258824
0.996078 0.631373 0.258824
0.094118 0.682353 0.341176
0.160784 0.678431 0.341176
0.266667 0.674510 0.333333
0.392157 0.678431 0.321569
0.580392 0.705882 0.309804
0.764706 0.737255 0.290196
0.933333 0.756863 0.250980
0.996078 0.760784 0.243137
0.247059 0.815686 0.380392
0.274510 0.815686 0.380392
0.345098 0.807843 0.376471
0.443137 0.811765 0.372549
0.592157 0.823529 0.360784
0.749020 0.847059 0.345098
0.894118 0.858824 0.305882
1.000000 0.882353 0.231373
0.505882 0.949020 0.533333
0.517647 0.941176 0.533333
0.549020 0.945098 0.529412
0.603922 0.945098 0.537255
0.694118 0.956863 0.541176
0.788235 0.960784 0.509804
0.894118 0.976471 0.478431
0.996078 0.980392 0.396078
0.000000 0.031373 0.427451
0.113725 0.027451 0.423529
0.278431 0.011765 0.415686
0.427451 0.003922 0.411765
0.498039 0.082353 0.364706
0.627451 0.098039 0.356863
0.803922 0.031373 0.352941
0.964706 0.011765 0.333333
0.000000 0.125490 0.427451
0.117647 0.121569 0.435294
0.286275 0.117647 0.427451
0.443137 0.121569 0.419608
0.509804 0.152941 0.376471
0.643137 0.156863 0.360784
0.811765 0.125490 0.356863
0.956863 0.188235 0.352941
0.000000 0.254902 0.450980
0.015686 0.250980 0.439216
0.278431 0.266667 0.435294
0.447059 0.270588 0.423529
0.537255 0.290196 0.403922
0.682353 0.270588 0.388235
0.831373 0.286275 0.376471
0.968627 0.313725 0.352941
0.003922 0.431373 0.450980
0.121569 0.431373 0.447059
0.286275 0.439216 0.450980
0.450980 0.450980 0.450980
0.600000 0.450980 0.439216
0.741176 0.447059 0.423529
0.874510 0.450980 0.400000
0.996078 0.474510 0.384314
0.227451 0.576471 0.466667
0.274510 0.584314 0.462745
0.380392 0.576471 0.462745
0.443137 0.572549 0.450980
0.623529 0.603922 0.447059
0.792157 0.615686 0.450980
0.929412 0.623529 0.443137
1.000000 0.623529 0.423529
0.325490 0.705882 0.490196
0.337255 0.701961 0.478431
0.372549 0.701961 0.466667
0.450980 0.690196 0.458824
0.588235 0.709804 0.447059
0.772549 0.741176 0.454902
0.925490 0.760784 0.431373
1.000000 0.764706 0.435294
0.345098 0.823529 0.498039
0.372549 0.815686 0.494118
0.419608 0.819608 0.490196
0.490196 0.811765 0.482353
0.603922 0.819608 0.486275
0.749020 0.843137 0.474510
0.898039 0.862745 0.458824
1.000000 0.874510 0.431373
0.525490 0.949020 0.603922
0.537255 0.952941 0.600000
0.568627 0.952941 0.611765
0.623529 0.952941 0.607843
0.686275 0.956863 0.603922
0.788235 0.964706 0.600000
0.890196 0.972549 0.576471
0.996078 0.984314 0.525490
0.050980 0.003922 0.576471
0.156863 0.000000 0.580392
0.317647 0.000000 0.568627
0.478431 0.000000 0.568627
0.627451 0.000000 0.564706
0.662745 0.086275 0.505882
0.788235 0.117647 0.494118
0.941176 0.094118 0.490196
0.074510 0.109804 0.584314
0.180392 0.109804 0.588235
0.321569 0.101961 0.584314
0.478431 0.086275 0.572549
0.627451 0.078431 0.560784
0.674510 0.168627 0.501961
0.796078 0.180392 0.498039
0.945098 0.164706 0.490196
0.000000 0.243137 0.600000
0.156863 0.250980 0.588235
0.325490 0.254902 0.592157
0.486275 0.254902 0.576471
0.639216 0.258824 0.576471
0.690196 0.294118 0.529412
0.815686 0.286275 0.513725
0.956863 0.270588 0.494118
0.000000 0.423529 0.607843
0.023529 0.419608 0.600000
0.262745 0.423529 0.603922
0.478431 0.435294 0.600000
0.643137 0.439216 0.596078
0.713725 0.439216 0.552941
0.847059 0.415686 0.529412
0.984314 0.403922 0.498039
0.172549 0.596078 0.607843
0.239216 0.596078 0.607843
0.360784 0.600000 0.611765
0.501961 0.600000 0.615686
0.647059 0.615686 0.615686
0.768627 0.607843 0.600000
0.886275 0.600000 0.572549
1.000000 0.600000 0.545098
0.396078 0.729412 0.635294
0.419608 0.733333 0.627451
0.482353 0.725490 0.627451
0.572549 0.729412 0.635294
0.623529 0.713725 0.603922
0.780392 0.745098 0.615686
0.917647 0.760784 0.619608
0.996078 0.764706 0.615686
0.517647 0.835294 0.674510
0.529412 0.831373 0.666667
0.568627 0.835294 0.666667
0.564706 0.831373 0.631373
0.631373 0.819608 0.615686
0.756863 0.839216 0.615686
0.894118 0.862745 0.619608
1.000000 0.878431 0.615686
0.576471 0.952941 0.701961
0.568627 0.956863 0.701961
0.600000 0.952941 0.701961
0.643137 0.952941 0.694118
0.701961 0.956863 0.698039
0.788235 0.964706 0.694118
0.886275 0.972549 0.678431
0.980392 0.988235 0.658824
0.196078 0.000000 0.741176
0.254902 0.000000 0.737255
0.376471 0.000000 0.733333
0.525490 0.000000 0.725490
0.674510 0.003922 0.725490
0.803922 0.000000 0.709804
0.839216 0.090196 0.666667
0.945098 0.152941 0.647059
0.203922 0.078431 0.741176
0.262745 0.070588 0.741176
0.384314 0.054902 0.737255
0.525490 0.019608 0.729412
0.674510 0.003922 0.725490
0.803922 0.019608 0.717647
0.835294 0.168627 0.654902
0.949020 0.203922 0.650980
0.188235 0.239216 0.741176
0.254902 0.247059 0.745098
0.380392 0.235294 0.749020
0.521569 0.239216 0.733333
0.670588 0.239216 0.729412
0.800000 0.254902 0.721569
0.835294 0.301961 0.662745
0.949020 0.317647 0.662745
0.007843 0.384314 0.760784
0.035294 0.384314 0.752941
0.341176 0.411765 0.749020
0.517647 0.419608 0.749020
0.670588 0.415686 0.745098
0.803922 0.423529 0.741176
0.850980 0.435294 0.678431
0.952941 0.431373 0.658824
0.082353 0.580392 0.756863
0.184314 0.580392 0.760784
0.317647 0.580392 0.756863
0.470588 0.576471 0.752941
0.654902 0.588235 0.752941
0.800000 0.596078 0.745098
0.854902 0.584314 0.705882
0.976471 0.560784 0.678431
0.352941 0.733333 0.756863
0.388235 0.729412 0.756863
0.462745 0.737255 0.764706
0.564706 0.741176 0.760784
0.678431 0.749020 0.764706
0.800000 0.756863 0.772549
0.894118 0.745098 0.745098
0.992157 0.745098 0.725490
0.556863 0.858824 0.788235
0.572549 0.858824 0.784314
0.607843 0.854902 0.780392
0.662745 0.854902 0.780392
0.733333 0.847059 0.776471
0.772549 0.843137 0.756863
0.898039 0.870588 0.760784
1.000000 0.886275 0.768627
0.678431 0.956863 0.823529
0.682353 0.952941 0.831373
0.701961 0.956863 0.823529
0.733333 0.956863 0.827451
0.737255 0.960784 0.796078
0.796078 0.964706 0.788235
0.890196 0.976471 0.792157
0.988235 0.980392 0.780392
0.341176 0.003922 0.878431
0.384314 0.000000 0.874510
0.470588 0.000000 0.870588
0.596078 0.000000 0.878431
0.729412 0.000000 0.874510
0.850980 0.000000 0.858824
0.964706 0.000000 0.850980
0.988235 0.152941 0.819608
0.345098 0.000000 0.886275
0.384314 0.000000 0.874510
0.474510 0.000000 0.878431
0.596078 0.003922 0.870588
0.725490 0.000000 0.870588
0.854902 0.003922 0.870588
0.968627 0.082353 0.866667
0.988235 0.219608 0.815686
0.329412 0.223529 0.886275
0.368627 0.223529 0.878431
0.466667 0.219608 0.882353
0.592157 0.215686 0.878431
0.721569 0.223529 0.870588
0.854902 0.239216 0.870588
0.956863 0.266667 0.862745
0.984314 0.325490 0.823529
0.270588 0.384314 0.882353
0.325490 0.396078 0.882353
0.435294 0.396078 0.878431
0.572549 0.400000 0.882353
0.709804 0.403922 0.874510
0.843137 0.411765 0.870588
0.945098 0.427451 0.854902
0.972549 0.462745 0.823529
0.066667 0.549020 0.882353
0.180392 0.549020 0.890196
0.325490 0.545098 0.886275
0.517647 0.560784 0.882353
0.682353 0.572549 0.874510
0.823529 0.572549 0.878431
0.941176 0.584314 0.858824
0.976471 0.592157 0.823529
0.325490 0.721569 0.886275
0.356863 0.721569 0.882353
0.435294 0.721569 0.886275
0.537255 0.725490 0.882353
0.650980 0.725490 0.882353
0.796078 0.725490 0.874510
0.913725 0.737255 0.866667
0.980392 0.721569 0.839216
0.525490 0.854902 0.886275
0.529412 0.854902 0.870588
0.588235 0.858824 0.886275
0.647059 0.854902 0.878431
0.733333 0.862745 0.890196
0.815686 0.866667 0.890196
0.913725 0.878431 0.890196
0.984314 0.866667 0.874510
0.701961 0.960784 0.905882
0.713725 0.964706 0.909804
0.733333 0.960784 0.901961
0.764706 0.964706 0.905882
0.803922 0.968627 0.913725
0.843137 0.964706 0.901961
0.886275 0.972549 0.882353
0.988235 0.988235 0.886275
0.498039 0.000000 0.992157
0.533333 0.000000 1.000000
0.600000 0.000000 1.000000
0.690196 0.000000 0.992157
0.803922 0.000000 0.992157
0.913725 0.003922 1.000000
0.996078 0.129412 0.988235
0.996078 0.250980 0.980392
0.505882 0.000000 1.000000
0.533333 0.000000 1.000000
0.592157 0.000000 1.000000
0.690196 0.003922 0.996078
0.792157 0.019608 0.992157
0.909804 0.117647 0.996078
1.000000 0.207843 0.984314
1.000000 0.294118 0.988235
0.494118 0.227451 1.000000
0.517647 0.231373 1.000000
0.588235 0.227451 1.000000
0.678431 0.235294 0.996078
0.788235 0.254902 0.992157
0.905882 0.282353 0.996078
1.000000 0.333333 0.992157
1.000000 0.388235 0.988235
0.454902 0.403922 1.000000
0.490196 0.400000 1.000000
0.560784 0.400000 1.000000
0.658824 0.403922 1.000000
0.772549 0.423529 0.996078
0.886275 0.439216 0.988235
0.988235 0.466667 0.988235
1.000000 0.501961 0.992157
0.290196 0.521569 0.992157
0.352941 0.529412 0.996078
0.482353 0.549020 0.996078
0.619608 0.564706 1.000000
0.745098 0.576471 0.996078
0.862745 0.584314 0.992157
0.968627 0.600000 0.984314
1.000000 0.623529 0.984314
0.352941 0.713725 1.000000
0.384314 0.713725 1.000000
0.443137 0.709804 1.000000
0.552941 0.705882 1.000000
0.682353 0.709804 0.992157
0.827451 0.721569 0.992157
0.945098 0.729412 0.992157
1.000000 0.745098 0.980392
0.545098 0.858824 0.996078
0.556863 0.854902 0.988235
0.596078 0.854902 0.992157
0.643137 0.854902 0.988235
0.717647 0.858824 0.992157
0.796078 0.850980 0.988235
0.905882 0.862745 0.988235
1.000000 0.866667 0.984314
0.690196 0.964706 0.992157
0.698039 0.968627 0.996078
0.713725 0.968627 0.984314
0.752941 0.968627 0.988235
0.796078 0.972549 0.992157
0.854902 0.976471 0.988235
0.917647 0.976471 0.988235
0.988235 0.988235 0.988235
